X:274
T:Johnson's Jig. (p)1687.PLFD.274
M:6/4
L:1/4
Q:3/4=90
S:Playford, Dancing Master,7th Ed,1st Supp,1687.
R:.Jig
O:England
H:1687.
Z:Chris Partington
K:Bb
f|d>cde2f|fgGc2B|A3f3|b>aga2g|d=eff>ge|f3-f2:|
|:f|c>fed2c|Bcdbgb|a3g3|f>edece|d>cdcAd|c3B2:|
